svg/firewall.svg

<?xml version="1.0" encoding="UTF-8"?>
<svg xmlns="http://www.w3.org/2000/svg" xmlns:xlink="http://www.w3.org/1999/xlink" width="32" height="32" viewBox="0 0 32 32">
<path fill-rule="nonzero" fill="rgb(0%, 0%, 0%)" fill-opacity="1" d="M 2 29 C 2 29.550781 2.449219 30 3 30 L 10 30 L 10 24 L 2 24 Z M 12 24 L 20 24 L 20 30 L 12 30 Z M 22 30 L 29 30 C 29.550781 30 30 29.550781 30 29 L 30 24 L 22 24 Z M 27 16 L 30 16 L 30 22 L 27 22 Z M 2 16 L 5 16 L 5 22 L 2 22 Z M 9.992188 16 L 7 16 L 7 22 L 15 22 L 15 20.730469 C 14.910156 20.679688 14.828125 20.621094 14.746094 20.558594 L 13.125 19.253906 C 11.945312 18.308594 10.894531 17.214844 9.992188 16 M 17.253906 20.558594 C 17.175781 20.621094 17.089844 20.679688 17 20.730469 L 17 22 L 25 22 L 25 16 L 22.007812 16 C 21.105469 17.214844 20.054688 18.308594 18.875 19.253906 Z M 7.054688 8 L 3 8 C 2.449219 8 2 8.449219 2 9 L 2 14 L 8.71875 14 C 7.746094 12.140625 7.175781 10.09375 7.054688 8 M 29 8 L 24.945312 8 C 24.824219 10.097656 24.253906 12.140625 23.277344 14 L 30 14 L 30 9 C 30 8.449219 29.550781 8 29 8 M 13.75 18.476562 L 15.371094 19.777344 C 15.738281 20.074219 16.261719 20.074219 16.628906 19.777344 L 18.246094 18.476562 C 22.011719 15.453125 24 11.484375 24 7 C 24 6.640625 23.808594 6.308594 23.496094 6.132812 L 16.496094 2.132812 C 16.1875 1.957031 15.8125 1.957031 15.503906 2.132812 L 8.503906 6.132812 C 8.191406 6.308594 8 6.640625 8 7 C 8 11.484375 9.988281 15.453125 13.75 18.476562 M 13.292969 9.292969 C 13.683594 8.902344 14.316406 8.902344 14.707031 9.292969 L 15.890625 10.476562 L 18.199219 7.398438 C 18.53125 6.957031 19.160156 6.867188 19.601562 7.199219 C 20.042969 7.53125 20.132812 8.160156 19.800781 8.601562 L 16.800781 12.601562 C 16.625 12.832031 16.359375 12.976562 16.070312 12.996094 C 15.78125 13.019531 15.496094 12.914062 15.292969 12.707031 L 13.292969 10.707031 C 12.902344 10.316406 12.902344 9.683594 13.292969 9.292969 "/>
</svg>

<svg role="img" viewBox="0 0 32 32" xmlns="http://www.w3.org/2000/svg"><path d="M2 29c0 .55.45 1 1 1h7v-6H2Zm10-5h8v6h-8Zm10 6h7c.55 0 1-.45 1-1v-5h-8Zm5-14h3v6h-3ZM2 16h3v6H2Zm7.992 0H7v6h8v-1.27q-.133-.077-.254-.171l-1.621-1.305A17.7 17.7 0 0 1 9.992 16m7.262 4.559a2 2 0 0 1-.254.171V22h8v-6h-2.992a17.7 17.7 0 0 1-3.133 3.254ZM7.054 8H3c-.55 0-1 .45-1 1v5h6.719a14.8 14.8 0 0 1-1.664-6M29 8h-4.055a14.7 14.7 0 0 1-1.668 6H30V9c0-.55-.45-1-1-1M13.75 18.477l1.621 1.3a1 1 0 0 0 1.258 0l1.617-1.3C22.012 15.453 24 11.484 24 7a.99.99 0 0 0-.504-.867l-7-4a1 1 0 0 0-.992 0l-7 4A.99.99 0 0 0 8 7c0 4.484 1.988 8.453 5.75 11.477m-.457-9.184a1 1 0 0 1 1.414 0l1.184 1.184 2.308-3.079a1.003 1.003 0 0 1 1.602 1.204l-3 4c-.176.23-.442.375-.73.394a.98.98 0 0 1-.778-.289l-2-2a1 1 0 0 1 0-1.414" fill="rgb(0%, 0%, 0%)"/></svg>
